lib/svgs/tick.svg

<svg xmlns="http://www.w3.org/2000/svg" viewBox="0 0 20 20">
    <path fill="#000" fill-rule="evenodd" d="M8.0895,15.035 C7.9305,15.035 7.7775,14.9697368 7.6655,14.8497368 L3.1755,10.1234211 C2.9415,9.87710526 2.9415,9.47710526 3.1755,9.23078947 C3.4105,8.98447368 3.7905,8.98447368 4.0245,9.23078947 L8.0895,13.5107895 L15.9985,5.18552632 C16.2335,4.93815789 16.6125,4.93815789 16.8475,5.18552632 C17.0815,5.43184211 17.0815,5.83184211 16.8475,6.07815789 L8.5135,14.8497368 C8.4015,14.9697368 8.2485,15.035 8.0895,15.035 L8.0895,15.035 Z"/>
</svg>

<svg xmlns="http://www.w3.org/2000/svg" viewBox="0 0 20 20">
    <path fill="#000" fill-rule="evenodd" d="M8.09 15.035a.578.578 0 0 1-.425-.185l-4.49-4.727a.655.655 0 0 1 0-.892.58.58 0 0 1 .85 0l4.064 4.28L16 5.186a.578.578 0 0 1 .848 0 .655.655 0 0 1 0 .892L8.514 14.85a.578.578 0 0 1-.424.185"/>
</svg>
